X:1
T:Etude No.1 Op.40
T:Leonard Schulz  (1814 - 1860)
C:Leonard Schulz  (1814 - 1860)
%%score ( 1 2 )
L:1/8
Q:1/4=69
M:4/4
K:C
V:1 treble-8 nm="Guitare classique"
V:2 treble-8 
V:1
"^Grave""_" cc"^For the first finger and thumb of the right hand."cc cccc | cccc cccc | %2
 cccc cccc | ^cccc cccc | dddd dddd | dddd dddd | dddd dddd | ^dddd dddd | eeee eeee | eeee eeee | %10
 e!1!f"_dolce"!2!^f!4!g !1!c!3!d!4!^de | G8 | !1!f!3!g!4!^g!4!a !3!d!1!f!2!A!4!d | G8 | %14
"_poco a poco cresc." !1!cB!4!d!1!c BA^GA | !2!d!1!^ced =cB^AB | e!2!fe!3!d dccc | %17
"^rit." B!2!cB!3!A !1!^G4 |"_" !1!aaaa aaaa | !1!^gggg gggg | !2!=gggg gggg | !2!^ffff ffff | %22
 =ffff"^rit." ffff | eedd ccBB | (3!2!AAB (3cd^d e2 ^G2 | %25
"_""^a tempo""^First and second fingers alternately." (3AAA (3AAA (3AAA (3AAA | %26
 (3^GGG (3GGG (3GGG (3GGG | (3ccc (3ccc (3ccc (3ccc | (3BBB (3BBB (3BBB (3BBB | %29
 (3!2!^ccc (3ccc (3!4!ddd (3!1!fff | (3BBB (3BBB (3!1!ccc (3eee | (3!4!ddd (3ddd (3ccc (3ccc | %32
 (3BBB (3BBB (3ccc (3ccc | (3^ccc (3cc!2!c (3!2!ddd (3!4!aaa | (3BBB (3BBB (3ccc (3!4!ggg | %35
 (3!1!^fff (3fff (3!1!=fff (3fff | (3=eee (3eee (3!1!_eee (3eee | (3!2!_eee (3eee (3eee (3eee | %38
 (3=eee (3eee (3!1!ddd (3ddd | (3ccc (3ccc (3BBB (3BBB | %40
 (3ccc (3ccc (3BBB[Q:1/4=69]"_dim." (3B[Q:1/4=68]"^.3"B[Q:1/4=67]"^.6"B[Q:1/4=67] | %41
[Q:1/4=66]"^.9" (3c[Q:1/4=66]"^.2"c[Q:1/4=65]"^.5"c[Q:1/4=64]"^.8" (3c[Q:1/4=64]"^.1"c[Q:1/4=63]"^.4"c[Q:1/4=63][Q:1/4=62]"^.7" (3c[Q:1/4=62]c[Q:1/4=61]"^.3"c[Q:1/4=60]"^.6" (3c[Q:1/4=59]"^.9"c[Q:1/4=59]"^.1"c | %42
[Q:1/4=58]"^.4" c8 |] %43
V:2
 z8 | z2 !^!C2 !^!E2 !^!F2 | G4 C4 | z2 A,2 !1!A2- A/G/!1!E/!3!F/ | D8 | z2 D2 !3!F2 G2 | %6
 !2!A4 D4 | z2 !1!B,2 !3!B2- B/A/^F/G/ | !2!E8- | E8 | !3!C2 G2 !2!E2 G2 | CG,A,B, CB,C^C | %12
 D2 !2!F2 D2 !3!F2 | B,^F,G,A, B,CD^D | !2!E3 E !3!F3 F | !3!^F3 F G3 G | !1!^G3 G !2!A3 A, | %17
 D2 ^D2 EE,E,E, | z2 !3!A2 !1!c2 !3!d2 | e4 !4!E4 | z2 !4!e2 B2 !1!^c2 | !3!d4 D4 | %22
 z2 d2- d/!2!^c/!3!d/!1!=c/ !4!B/!3!^A/!4!B/!3!=A/ | !1!^G2 !2!E2 !2!A2 D2 | !1!E6 E,2 | %25
 A,4 C2 D2 | E4 E,4 | z2 C>D E2 F2 | G4 G,4 | z3/2 G/ A>!1!E !3!F2 D2 | z3/2 !3!F/ G>D !2!E2 C2 | %31
 z3/2 F,/ E,>F, G,2 G2 | z3/2 G/ G>G, C4 | z3/2 G/ A>E !1!F2 D2 | z3/2 F/ G>D E2 !3!C2 | %35
 z3/2 c/ _e>c z3/2 B/ !3!d>B | z3/2 !3!_B/ !2!_d>B z3/2 !4!A/ !2!c>A | %37
 z3/2 !3!G/ !4!c>G z3/2 !1!^F/ !3!c>F | z3/2 !3!G/ !4!c>G z3/2 !3!G/ !2!B>G | z2 C7/2 C/ _A>C | %40
 C z C7/2 C/ _A>"^.4"C | C7/2"^.2" C/ C2 C2 | C8 |] %43

